!!!SOCIAL_FUNCTION:	additional Mide Songs
!!!PDT:	1909
!!!OTL: No_92_I_Will_Sing.krn
!!!REG: Great_Lakes
!!!LANG: Non-Tone
!!!LING_GROUP: Algonquin
**kern	**kern
*staff2	*staff1
*clefF4	*clefF4
*k[b-e-a-d-g-c-]	*k[b-e-a-d-g-c-]
*M3/4	*M3/4
8r	8d-\
=1	=1
8GG-/L	4d-\
8GG-/J	.
8GG-/L	4cn\
8GG-/J	.
8GG-/L	12d-\L
.	12d-\
8GG-/J	.
.	12d-\J
=2||	=2||
*M2/4	*M2/4
2r	4.A-\
.	8d-\
=3||	=3||
*M3/4	*M3/4
2.r	4d-\
.	4c-\
.	12A-\L
.	12A-\
.	(24A-\L
.	24G-\JJ)
=4||	=4||
*M2/4	*M2/4
2r	(32G-\LKK
.	8.E-\)
.	32D-\Jkk
.	4D-\
=5!|:	=5!|:
2r	4D-\
.	12D-\L
.	12D-\
.	12D-\J
=6	=6
2r	4D-\
.	8A-\L
.	8A-\J
=7	=7
2r	4A-\
.	12A-\L
.	12A-\
.	(24A-\L
.	24G-\JJ)
=8	=8
2r	(16G-\LK
.	8.E-\J)
.	8E-\L
.	8D-\J
=9	=9
2r	4D-\
.	16D-\LL
.	16D-\J
.	8D-\J
=10	=10
2r	4D-\
.	8E-\L
.	8E-\J
=11	=11
2r	4E-\
.	12E-\L
.	12E-\
.	(24E-\L
.	24D-\JJ)
=12	=12
2r	16D-/LK
.	8.BB-/J
.	8E-\L
.	8E-\J
=13	=13
2r	4E-\
.	12E-\L
.	12E-\
.	(24E-\L
.	24D-\JJ)
=14	=14
2r	4D-\
.	8D-\L
.	8D-\J
=15	=15
2r	4D-\
.	12D-\L
.	12D-\
.	12D-\J
=16||	=16||
*M3/4	*M3/4
2.r	4D-\
.	8A-\L
.	8A-\J
.	16A-\LL
.	16A-\
.	16c-\
.	16c-\JJ
=17	=17
*M2/4	*M2/4
2r	4B-\
.	16B-\LL
.	16A-\
.	(16A-\
.	16G-\JJ)
=18	=18
*M3/8	*M3/8
4.r	32G-\LLK
.	16.E-\J
.	8D-\
.	8D-\J
==:|!	==:|!
*-	*-
